X:1
T: Joy has Returned
C:Bruce Shawyer
R:Reel
Q:232
K:D
M:4/4
L:1/16
|:A4|"D"d4A4d4A4|"G"B2A2G4 "A7"A2B2c4|"D"d4c2d2 "A7"e4d2e2|"D"f2a2g2f2 "A7"e4A4|
"Em"g4g4 "D"f2g2f4|"Em"e2f2e2d2 "A7"c2B2A4|"Em"B2c2d2B2 "A7"c2B2A2e2|"D"d8d4:|
|:A4|"D"a2g2f2g2 a2g2f2a2|"Em"g2f2e2d2 "A7"c2d2e4|"D"a2g2f2g2 a2g2f2a2|"Em"g2f2e2f2 "A7"g8|
"D"a2g2f2g2 a2g2f2a2|"Em"g2f2e2d2 "A7"c2d2e4|"Em"B2c2d2B2 "A7"c2B2A2e2|"D"d8d4:|
